src/assets/message-circle.svg

<svg fill="none" height="24" viewBox="0 0 24 24" width="24" xmlns="http://www.w3.org/2000/svg"><path d="m21 11.5c.0034 1.3199-.3049 2.6219-.9 3.8-.7056 1.4117-1.7902 2.5992-3.1326 3.4293-1.3423.8301-2.8892 1.2701-4.4674 1.2707-1.3199.0034-2.62188-.3049-3.8-.9l-5.7 1.9 1.9-5.7c-.59507-1.1781-.90344-2.4801-.9-3.8.00061-1.57824.44061-3.12515 1.27072-4.46745s2.01753-2.42698 3.42928-3.13255c1.17812-.59507 2.4801-.90344 3.8-.9h.5c2.0843.11499 4.053.99476 5.5291 2.47086 1.4761 1.47609 2.3559 3.44479 2.4709 5.52914z" fill="#f2c94c"/></svg>

<svg width="24" height="24" viewBox="0 0 24 24" fill="none" xmlns="http://www.w3.org/2000/svg">
<path d="M21 11.5C21.0034 12.8199 20.6951 14.1219 20.1 15.3C19.3944 16.7117 18.3098 17.8992 16.9674 18.7293C15.6251 19.5594 14.0782 19.9994 12.5 20C11.1801 20.0034 9.87812 19.6951 8.7 19.1L3 21L4.9 15.3C4.30493 14.1219 3.99656 12.8199 4 11.5C4.00061 9.92176 4.44061 8.37485 5.27072 7.03255C6.10083 5.69025 7.28825 4.60557 8.7 3.9C9.87812 3.30493 11.1801 2.99656 12.5 3H13C15.0843 3.11499 17.053 3.99476 18.5291 5.47086C20.0052 6.94695 20.885 8.91565 21 11V11.5Z"/>
</svg>
